X: 8231
T: Copper Mines Of Killarney, The
R: jig
M: 6/8
K: Eminor
e|:dBG AFD|FED E2E|DFA EGB|FA^c d2f|
e^cA GFE|FED ~E2D|EGB EGB|1 AGF E2e:|2 AGF E2d||
|:~e3 dfa|gfe fdB|fBe dfa|gfe f2a|
bfa gfe|fBe dBG|AGF EAG|1 FED E2d:|2 FED E2e||

